src/assets/microphone.svg

<svg width="13" height="22" viewBox="0 0 15 24" fill="none" xmlns="http://www.w3.org/2000/svg">
<path d="M7.5 14.4C6.57174 14.4 5.6815 14.046 5.02513 13.4159C4.36875 12.7858 4 11.9311 4 11.04V3.36C4 2.91876 4.09053 2.48184 4.26642 2.07418C4.44231 1.66653 4.70012 1.29613 5.02513 0.984122C5.35013 0.672117 5.73597 0.424621 6.16061 0.255765C6.58525 0.086909 7.04037 0 7.5 0C7.95963 0 8.41475 0.086909 8.83939 0.255765C9.26403 0.424621 9.64987 0.672117 9.97487 0.984122C10.2999 1.29613 10.5577 1.66653 10.7336 2.07418C10.9095 2.48184 11 2.91876 11 3.36V11.04C11 11.9311 10.6313 12.7858 9.97487 13.4159C9.3185 14.046 8.42826 14.4 7.5 14.4Z" fill="#838383"/>
<path d="M13 7.68018V11.0402C13 13.9509 10.532 16.3202 7.5 16.3202C4.468 16.3202 2 13.9509 2 11.0402V7.68018H0V11.0402C0 14.6843 2.837 17.6968 6.5 18.1682V22.0802H3V24.0002H12V22.0802H8.5V18.1682C12.163 17.6968 15 14.6843 15 11.0402V7.68018H13Z" fill="#838383"/>
</svg>

<svg width="13" height="22" viewBox="0 0 15 24" fill="none" xmlns="http://www.w3.org/2000/svg"><path d="M7.5 14.4a3.575 3.575 0 01-2.475-.984A3.293 3.293 0 014 11.04V3.36c0-.441.09-.878.266-1.286.176-.407.434-.778.76-1.09.324-.312.71-.56 1.135-.728a3.627 3.627 0 012.678 0c.425.169.81.416 1.136.728.325.312.583.683.759 1.09.175.408.266.845.266 1.286v7.68c0 .891-.369 1.746-1.025 2.376A3.575 3.575 0 017.5 14.4z" fill="#838383"/><path d="M13 7.68v3.36c0 2.91-2.468 5.28-5.5 5.28S2 13.95 2 11.04V7.68H0v3.36c0 3.644 2.837 6.657 6.5 7.128v3.912H3V24h9v-1.92H8.5v-3.912c3.663-.471 6.5-3.484 6.5-7.128V7.68h-2z" fill="#838383"/></svg>
